; generated by Slic3r 1.30.0.25-prusa3d-release_candidate_1_3-win64 on 2016-07-19 at 16:14:48

; external perimeters extrusion width = 0.45mm
; perimeters extrusion width = 0.45mm
; infill extrusion width = 0.45mm
; solid infill extrusion width = 0.45mm
; top infill extrusion width = 0.40mm

M107
M83  ; extruder relative mode
M104 S210 ; set extruder temp
M140 S55 ; set bed temp
M190 S55 ; wait for bed temp
M109 S210 ; wait for extruder temp
G28 W ; home all without mesh bed level
G80 ; mesh bed leveling
G1 Y-3.0 F1000.0 ; go outside pritn area
G1 X60.0 E9.0  F1000.0 ; intro line
G1 X100.0 E12.5  F1000.0 ; intro line
G21 ; set units to millimeters
G90 ; use absolute coordinates
M83 ; use relative distances for extrusion
G1 E-0.80000 F2100.00000
G1 Z0.150 F7200.000
G1 X63.396 Y84.189 F7200.000
G1 E0.80000 F2100.00000
M204 S1000
G1 F1800
G1 X64.712 Y83.551 E0.03537
G1 X89.391 Y80.072 E0.60275
G1 X89.695 Y80.049 E0.00738
G1 X160.172 Y79.194 E1.70461
G1 X179.619 Y79.194 E0.47033
G1 X180.624 Y79.415 E0.02489
G1 X188.123 Y82.894 E0.19992
G1 X188.843 Y83.410 E0.02142
G1 X195.447 Y90.311 E0.23102
G1 X196.004 Y91.262 E0.02666
G1 X201.040 Y107.687 E0.41547
G1 X201.144 Y108.381 E0.01698
G1 X201.183 Y123.844 E0.37397
G1 X201.168 Y124.115 E0.00657
G1 X198.348 Y149.308 E0.61309
G1 X197.813 Y150.566 E0.03307
G1 X196.404 Y151.391 E0.03947
G1 X173.067 Y155.660 E0.57378
G1 X172.543 Y155.697 E0.01270
G1 X85.253 Y152.258 E2.11273
G1 X64.542 Y151.111 E0.50168
G1 X63.255 Y150.648 E0.03307
G1 X62.309 Y149.057 E0.04476
G1 X58.828 Y124.121 E0.60894
G1 X58.811 Y123.618 E0.01215
G1 X61.041 Y92.757 E0.74832
G1 X61.096 Y92.391 E0.00896
G1 X62.719 Y85.377 E0.17411
G1 X63.366 Y84.241 E0.03162
G1 F5760
G1 X64.712 Y83.551 E-0.52384
G1 F5760
G1 X65.387 Y83.456 E-0.23616
G1 E-0.04000 F2100.00000
G1 X87.460 Y94.736 F7200.000
G1 E0.80000 F2100.00000
G1 F720
G1 X84.720 Y94.736 E0.06626
G1 X84.720 Y91.997 E0.06626
G1 X87.460 Y91.997 E0.06626
G1 X87.460 Y94.676 E0.06481
G1 X87.072 Y94.349 F7200.000
G1 F720
G1 X85.108 Y94.349 E0.04750
G1 X85.108 Y92.385 E0.04750
G1 X87.072 Y92.385 E0.04750
G1 X87.072 Y94.289 E0.04605
G1 X87.140 Y94.743 F7200.000
G1 F5760
G1 X85.108 Y94.349 E-0.68059
G1 F5760
G1 X85.108 Y94.119 E-0.07941
G1 E-0.04000 F2100.00000
G1 X87.727 Y92.164 F7200.000
G1 E0.80000 F2100.00000
G1 F1440
G1 X87.727 Y94.990 E0.06835
G1 X84.403 Y94.990 E0.08038
G1 X81.745 Y92.332 E0.09092
G1 X64.640 Y92.332 E0.41368
G1 X64.640 Y93.845 E0.03660
G1 X64.080 Y93.845 E0.01355
G1 X64.080 Y93.049 E0.01924
G1 X65.696 Y90.896 E0.06510
G1 X66.877 Y92.085 E0.04053
G1 X68.121 Y90.833 E0.04269
G1 X69.366 Y92.085 E0.04270
G1 X70.610 Y90.833 E0.04269
G1 X71.854 Y92.085 E0.04270
G1 X73.098 Y90.833 E0.04269
G1 X74.342 Y92.085 E0.04270
G1 X75.587 Y90.833 E0.04270
G1 X76.831 Y92.085 E0.04270
G1 X78.075 Y90.833 E0.04269
G1 X79.319 Y92.085 E0.04270
G1 X80.563 Y90.833 E0.04269
G1 X81.808 Y92.085 E0.04270
G1 X83.052 Y90.833 E0.04269
G1 X84.287 Y92.077 E0.04241
G1 X87.234 Y89.228 E0.09911
G1 X84.983 Y86.834 E0.07947
G1 X83.722 Y88.081 E0.04288
G1 X82.477 Y86.849 E0.04235
G1 X81.232 Y88.081 E0.04235
G1 X79.987 Y86.850 E0.04235
G1 X78.742 Y88.081 E0.04235
G1 X77.497 Y86.850 E0.04235
G1 X76.251 Y88.081 E0.04235
G1 X75.006 Y86.850 E0.04235
G1 X73.761 Y88.081 E0.04235
G1 X72.516 Y86.849 E0.04235
G1 X71.271 Y88.081 E0.04235
G1 X70.026 Y86.850 E0.04235
G1 X68.781 Y88.081 E0.04235
G1 X67.536 Y86.850 E0.04235
G1 X66.312 Y88.059 E0.04160
G1 X65.643 Y87.325 E0.02401
G1 X65.643 Y86.514 E0.01964
G1 X92.336 Y86.514 E0.64557
G1 X92.336 Y83.434 E0.07448
G1 X90.322 Y83.434 E0.04872
G1 X90.322 Y83.035 E0.00966
G1 X94.386 Y83.035 E0.09831
G1 X94.386 Y86.514 E0.08414
G1 X106.494 Y86.514 E0.29283
G1 X106.494 Y83.434 E0.07448
G1 X104.368 Y83.434 E0.05143
G1 X104.368 Y83.035 E0.00966
G1 X108.544 Y83.035 E0.10101
G1 X108.544 Y86.514 E0.08414
G1 X116.385 Y86.514 E0.18963
G1 X121.845 Y92.220 E0.19100
G1 X112.921 Y92.220 E0.21582
G1 X111.381 Y93.784 E0.05310
G1 X109.590 Y91.966 E0.06173
G1 X107.812 Y93.771 E0.06128
G1 X106.008 Y91.826 E0.06415
G1 X104.188 Y93.789 E0.06475
G1 X102.427 Y92.138 E0.05838
G1 X100.643 Y93.811 E0.05914
G1 X98.846 Y92.069 E0.06053
G1 X97.055 Y93.804 E0.06030
G1 X95.264 Y92.069 E0.06030
G1 X93.490 Y93.788 E0.05975
G1 X91.938 Y92.164 E0.05433
G1 X87.787 Y92.164 E0.10039
G1 X88.115 Y92.552 F7200.000
G1 F1080
G1 X88.115 Y95.378 E0.06835
G1 X84.243 Y95.378 E0.09364
G1 X81.585 Y92.719 E0.09092
G1 X65.028 Y92.719 E0.40042
G1 X65.028 Y94.233 E0.03660
G1 X63.692 Y94.233 E0.03231
G1 X63.692 Y92.920 E0.03175
G1 X65.655 Y90.305 E0.07908
G1 X66.877 Y91.535 E0.04194
G1 X68.121 Y90.282 E0.04269
G1 X69.366 Y91.535 E0.04270
G1 X70.610 Y90.282 E0.04269
G1 X71.854 Y91.535 E0.04270
G1 X73.098 Y90.282 E0.04269
G1 X74.342 Y91.535 E0.04270
G1 X75.587 Y90.282 E0.04270
G1 X76.831 Y91.535 E0.04270
G1 X78.075 Y90.282 E0.04269
G1 X79.319 Y91.535 E0.04270
G1 X80.563 Y90.282 E0.04269
G1 X81.808 Y91.535 E0.04270
G1 X83.052 Y90.282 E0.04269
G1 X84.293 Y91.532 E0.04260
G1 X86.689 Y89.215 E0.08061
G1 X84.973 Y87.389 E0.06060
G1 X83.722 Y88.626 E0.04254
G1 X82.477 Y87.395 E0.04235
G1 X81.232 Y88.626 E0.04235
G1 X79.987 Y87.395 E0.04235
G1 X78.742 Y88.626 E0.04235
G1 X77.497 Y87.395 E0.04235
G1 X76.251 Y88.626 E0.04235
G1 X75.006 Y87.395 E0.04235
G1 X73.761 Y88.626 E0.04235
G1 X72.516 Y87.395 E0.04235
G1 X71.271 Y88.626 E0.04235
G1 X70.026 Y87.395 E0.04235
G1 X68.781 Y88.626 E0.04235
G1 X67.536 Y87.395 E0.04235
G1 X66.298 Y88.618 E0.04209
G1 X65.255 Y87.476 E0.03741
G1 X65.255 Y86.126 E0.03265
G1 X91.948 Y86.126 E0.64557
G1 X91.948 Y83.822 E0.05572
G1 X89.934 Y83.822 E0.04872
G1 X89.934 Y82.647 E0.02841
G1 X94.774 Y82.647 E0.11706
G1 X94.774 Y86.126 E0.08414
G1 X106.107 Y86.126 E0.27407
G1 X106.107 Y83.822 E0.05572
G1 X103.980 Y83.822 E0.05143
G1 X103.980 Y82.647 E0.02841
G1 X108.932 Y82.647 E0.11977
G1 X108.932 Y86.126 E0.08414
G1 X116.551 Y86.126 E0.18426
G1 X122.753 Y92.608 E0.21696
G1 X113.083 Y92.608 E0.23385
G1 X111.381 Y94.337 E0.05870
G1 X109.590 Y92.518 E0.06173
G1 X107.804 Y94.333 E0.06157
G1 X106.008 Y92.397 E0.06385
G1 X104.207 Y94.339 E0.06407
G1 X102.427 Y92.670 E0.05902
G1 X100.639 Y94.346 E0.05928
G1 X98.846 Y92.609 E0.06038
G1 X97.055 Y94.344 E0.06030
G1 X95.264 Y92.609 E0.06030
G1 X93.479 Y94.339 E0.06010
G1 X91.772 Y92.552 E0.05976
G1 X88.175 Y92.552 E0.08700
G1 X87.717 Y92.509 F7200.000
G1 F5760
G1 X88.128 Y94.745 E-0.76000
G1 E-0.04000 F2100.00000
G1 X84.493 Y92.537 F7200.000
G1 E0.80000 F2100.00000
G1 F1440
G1 X84.294 Y92.339 E0.00857
G1 X84.493 Y93.229 E0.02785
G1 X82.726 Y91.462 E0.07628
G1 X82.380 Y91.808 E0.01493
G1 X84.493 Y93.921 E0.09121
G1 X84.473 Y94.593 E0.02052
G1 X82.034 Y92.154 E0.10528
G1 X81.345 Y92.082 F7200.000
G1 F1440
G1 X80.481 Y91.218 E0.03768
G1 X80.131 Y91.568 E0.01525
G1 X80.668 Y92.104 E0.02340
G1 X79.969 Y92.104 E0.02156
G1 X79.782 Y91.917 E0.00815
G1 X78.857 Y92.082 F7200.000
G1 F1440
G1 X77.993 Y91.218 E0.03767
G1 X77.643 Y91.568 E0.01525
G1 X78.180 Y92.104 E0.02340
G1 X77.480 Y92.104 E0.02156
G1 X77.293 Y91.917 E0.00815
G1 X76.368 Y92.082 F7200.000
G1 F1440
G1 X75.504 Y91.218 E0.03769
G1 X75.155 Y91.568 E0.01526
G1 X75.691 Y92.104 E0.02340
G1 X74.992 Y92.104 E0.02158
G1 X74.805 Y91.918 E0.00815
G1 X73.880 Y92.082 F7200.000
G1 F1440
G1 X73.016 Y91.218 E0.03767
G1 X72.666 Y91.568 E0.01525
G1 X73.203 Y92.104 E0.02340
G1 X72.503 Y92.104 E0.02156
G1 X72.316 Y91.917 E0.00815
G1 X71.391 Y92.082 F7200.000
G1 F1440
G1 X70.527 Y91.218 E0.03768
G1 X70.178 Y91.568 E0.01525
G1 X70.714 Y92.104 E0.02340
G1 X70.015 Y92.104 E0.02156
G1 X69.828 Y91.917 E0.00815
G1 X68.903 Y92.082 F7200.000
G1 F1440
G1 X68.039 Y91.218 E0.03767
G1 X67.689 Y91.568 E0.01525
G1 X68.226 Y92.104 E0.02340
G1 X67.527 Y92.104 E0.02156
G1 X67.340 Y91.917 E0.00815
G1 X66.414 Y92.082 F7200.000
G1 F1440
G1 X65.649 Y91.317 E0.05041
G1 X65.182 Y91.906 E0.03499
G1 X65.380 Y92.104 E0.01309
G1 F5760
G1 X65.182 Y91.906 E-0.09738
G1 F5760
G1 X65.649 Y91.317 E-0.26029
G1 F5760
G1 X66.414 Y92.082 E-0.37506
G1 E-0.06727 F2100.00000
G1 X64.360 Y92.999 F7200.000
G1 E0.80000 F2100.00000
G1 F1440
G1 X64.360 Y93.651 E0.00570
G1 F5760
G1 X64.360 Y92.999 E-0.22580
G1 E-0.57420 F2100.00000
G1 X67.308 Y87.078 F7200.000
G1 E0.80000 F2100.00000
G1 F1440
G1 X66.818 Y86.588 E0.04781
G1 F5760
G1 X67.308 Y87.078 E-0.23986
G1 E-0.56014 F2100.00000
G1 X69.308 Y86.588 F7200.000
G1 E0.80000 F2100.00000
G1 F1440
G1 X69.798 Y87.078 E0.04781
G1 X70.370 Y86.726 F7200.000
G1 F1440
G1 X71.388 Y87.743 E0.09936
G1 X71.916 Y86.706 E0.08038
G1 X72.171 Y86.961 E0.02488
G1 X72.743 Y86.608 F7200.000
G1 F1440
G1 X73.996 Y87.861 E0.12229
G1 X74.289 Y86.588 E0.09016
G1 X74.779 Y87.078 E0.04781
G1 F5760
G1 X74.289 Y86.588 E-0.23986
G1 F5760
G1 X73.996 Y87.861 E-0.45229
G1 F5760
G1 X73.857 Y87.722 E-0.06785
G1 E-0.04000 F2100.00000
G1 X76.334 Y87.708 F7200.000
G1 E0.80000 F2100.00000
G1 F1440
G1 X75.386 Y86.761 E0.09250
G1 X76.149 Y86.741 E0.05268
G1 X76.725 Y87.317 E0.05623
G1 X76.932 Y86.741 E0.04225
G1 X77.117 Y86.925 E0.01802
G1 F5760
G1 X76.932 Y86.741 E-0.09039
G1 F5760
G1 X76.725 Y87.317 E-0.21196
G1 F5760
G1 X76.149 Y86.741 E-0.28211
G1 F5760
G1 X75.643 Y86.754 E-0.17554
G1 E-0.04000 F2100.00000
G1 X79.269 Y86.588 F7200.000
G1 E0.80000 F2100.00000
G1 F1440
G1 X79.759 Y87.078 E0.04781
G1 X80.214 Y86.608 F7200.000
G1 F1440
G1 X81.467 Y87.861 E0.12230
G1 X81.760 Y86.588 E0.09016
G1 X82.250 Y87.078 E0.04781
G1 X82.705 Y86.608 F7200.000
G1 F1440
G1 X83.957 Y87.861 E0.12230
G1 X84.250 Y86.588 E0.09016
G1 X84.740 Y87.078 E0.04781
G1 F5760
G1 X84.250 Y86.588 E-0.23986
G1 F5760
G1 X83.957 Y87.861 E-0.45229
G1 F5760
G1 X83.819 Y87.722 E-0.06785
G1 E-0.04000 F2100.00000
G1 X86.698 Y88.212 F7200.000
G1 E0.80000 F2100.00000
G1 F1440
G1 X90.423 Y91.936 E0.12824
G1 X90.975 Y91.936 E0.01344
G1 X85.779 Y86.741 E0.17887
G1 X86.331 Y86.741 E0.01344
G1 X91.527 Y91.936 E0.17887
G1 X92.079 Y91.936 E0.01344
G1 X86.883 Y86.741 E0.17887
G1 X87.435 Y86.741 E0.01344
G1 X93.857 Y93.163 E0.22109
G1 X94.138 Y92.891 E0.00950
G1 X87.988 Y86.741 E0.21174
G1 X88.540 Y86.741 E0.01344
G1 X94.418 Y92.619 E0.20239
G1 X94.699 Y92.348 E0.00950
G1 X89.092 Y86.741 E0.19303
G1 X89.644 Y86.741 E0.01344
G1 X94.979 Y92.076 E0.18368
G1 X95.259 Y91.805 E0.00950
G1 X90.196 Y86.741 E0.17433
G1 X90.748 Y86.741 E0.01344
G1 X97.302 Y93.295 E0.22565
G1 X97.583 Y93.024 E0.00950
G1 X91.300 Y86.741 E0.21630
G1 X91.852 Y86.741 E0.01344
G1 X97.863 Y92.752 E0.20695
G1 X98.143 Y92.480 E0.00950
G1 X92.404 Y86.741 E0.19759
G1 X92.564 Y86.348 F7200.000
G1 F1440
G1 X98.424 Y92.209 E0.20175
G1 X98.704 Y91.937 E0.00950
G1 X92.564 Y85.796 E0.21141
G1 X92.564 Y85.244 E0.01344
G1 X100.757 Y93.438 E0.28210
G1 X101.042 Y93.171 E0.00951
G1 X94.612 Y86.741 E0.22138
G1 X95.164 Y86.741 E0.01344
G1 X101.327 Y92.904 E0.21218
G1 X101.612 Y92.637 E0.00951
G1 X95.716 Y86.741 E0.20298
G1 X96.268 Y86.741 E0.01344
G1 X101.897 Y92.370 E0.19379
G1 X102.182 Y92.103 E0.00951
G1 X96.820 Y86.741 E0.18459
G1 X97.372 Y86.741 E0.01344
G1 X102.467 Y91.835 E0.17539
G1 F5760
G1 X100.915 Y90.284 E-0.76000
G1 E-0.04000 F2100.00000
G1 X104.429 Y93.245 F7200.000
G1 E0.80000 F2100.00000
G1 F1440
G1 X97.924 Y86.741 E0.22393
G1 X98.477 Y86.741 E0.01344
G1 X104.694 Y92.959 E0.21407
G1 X104.960 Y92.672 E0.00951
G1 X99.029 Y86.741 E0.20421
G1 X99.581 Y86.741 E0.01344
G1 X105.226 Y92.386 E0.19435
G1 X105.491 Y92.100 E0.00951
G1 X100.133 Y86.741 E0.18448
G1 X100.685 Y86.741 E0.01344
G1 X105.757 Y91.813 E0.17462
G1 X106.023 Y91.527 E0.00951
G1 X101.237 Y86.741 E0.16476
G1 X101.789 Y86.741 E0.01344
G1 X108.175 Y93.127 E0.21986
G1 X108.449 Y92.849 E0.00950
G1 X102.341 Y86.741 E0.21028
G1 X102.893 Y86.741 E0.01344
G1 X108.723 Y92.571 E0.20070
G1 X108.997 Y92.292 E0.00950
G1 X103.445 Y86.741 E0.19113
G1 X103.997 Y86.741 E0.01344
G1 X109.270 Y92.014 E0.18155
G1 X109.544 Y91.736 E0.00950
G1 X104.549 Y86.741 E0.17197
G1 X105.101 Y86.741 E0.01344
G1 X111.623 Y93.263 E0.22453
G1 X111.897 Y92.985 E0.00950
G1 X105.653 Y86.741 E0.21495
G1 X106.205 Y86.741 E0.01344
G1 X112.171 Y92.706 E0.20538
G1 X112.445 Y92.428 E0.00950
G1 X106.722 Y86.705 E0.19702
G1 X106.722 Y86.153 E0.01344
G1 X112.718 Y92.150 E0.20645
G1 X113.113 Y91.993 F7200.000
G1 F1440
G1 X106.722 Y85.601 E0.22004
G1 X106.722 Y85.049 E0.01344
G1 X113.665 Y91.993 E0.23904
G1 X114.217 Y91.993 E0.01344
G1 X108.965 Y86.741 E0.18080
G1 X109.518 Y86.741 E0.01344
G1 X114.769 Y91.993 E0.18080
G1 X115.321 Y91.993 E0.01344
G1 X110.070 Y86.741 E0.18080
G1 X110.622 Y86.741 E0.01344
G1 X115.873 Y91.993 E0.18080
G1 X116.425 Y91.993 E0.01344
G1 X111.174 Y86.741 E0.18080
G1 X111.726 Y86.741 E0.01344
G1 X116.977 Y91.993 E0.18080
G1 X117.529 Y91.993 E0.01344
G1 X112.278 Y86.741 E0.18080
G1 X112.830 Y86.741 E0.01344
G1 X118.081 Y91.993 E0.18080
G1 X118.634 Y91.993 E0.01344
G1 X113.382 Y86.741 E0.18080
G1 X113.934 Y86.741 E0.01344
G1 X119.186 Y91.993 E0.18080
G1 X119.738 Y91.993 E0.01344
G1 X114.486 Y86.741 E0.18080
G1 X115.038 Y86.741 E0.01344
G1 X120.290 Y91.993 E0.18080
G1 X120.842 Y91.993 E0.01344
G1 X115.590 Y86.741 E0.18080
G1 X116.142 Y86.741 E0.01344
G1 X116.967 Y87.565 E0.02839
G1 F5760
G1 X116.142 Y86.741 E-0.40388
G1 F5760
G1 X115.590 Y86.741 E-0.19121
G1 F5760
G1 X115.927 Y87.078 E-0.16491
G1 E-0.04000 F2100.00000
G1 X108.317 Y86.092 F7200.000
G1 E0.80000 F2100.00000
G1 F1440
G1 X106.722 Y84.497 E0.05492
G1 X106.722 Y83.945 E0.01344
G1 X108.317 Y85.540 E0.05492
G1 X108.317 Y84.988 E0.01344
G1 X106.722 Y83.393 E0.05492
G1 F5760
G1 X108.273 Y84.945 E-0.76000
G1 E-0.04000 F2100.00000
G1 X108.317 Y83.884 F7200.000
G1 E0.80000 F2100.00000
G1 F1440
G1 X107.695 Y83.262 E0.02141
G1 X107.143 Y83.262 E0.01344
G1 X108.317 Y84.436 E0.04042
G1 F5760
G1 X107.143 Y83.262 E-0.57508
G1 F5760
G1 X107.677 Y83.262 E-0.18492
G1 E-0.04000 F2100.00000
G1 X107.731 Y93.235 F7200.000
G1 E0.80000 F2100.00000
G1 F1440
G1 X107.901 Y93.405 E0.00586
G1 F5760
G1 X107.731 Y93.235 E-0.08335
G1 E-0.71665 F2100.00000
G1 X93.894 Y83.262 F7200.000
G1 E0.80000 F2100.00000
G1 F1440
G1 X94.159 Y83.528 E0.00914
G1 X94.159 Y84.080 E0.01344
G1 X93.342 Y83.262 E0.02815
G1 X92.789 Y83.262 E0.01344
G1 X94.159 Y84.632 E0.04715
G1 X94.159 Y85.184 E0.01344
G1 X92.564 Y83.588 E0.05493
G1 X92.564 Y84.140 E0.01344
G1 X94.159 Y85.736 E0.05493
G1 X94.159 Y86.288 E0.01344
G1 X92.564 Y84.692 E0.05493
G1 F5760
G1 X94.115 Y86.244 E-0.76000
G1 E-0.04000 F2100.00000
G1 X87.334 Y89.400 F7200.000
G1 E0.80000 F2100.00000
G1 F1440
G1 X89.871 Y91.936 E0.08733
G1 X89.319 Y91.936 E0.01344
G1 X87.054 Y89.671 E0.07798
G1 X86.773 Y89.943 E0.00950
G1 X88.767 Y91.936 E0.06864
G1 X88.215 Y91.936 E0.01344
G1 X86.492 Y90.214 E0.05930
G1 X86.211 Y90.485 E0.00950
G1 X87.496 Y91.769 E0.04421
G1 X86.944 Y91.769 E0.01344
G1 X85.931 Y90.757 E0.03486
G1 X85.650 Y91.028 E0.00950
G1 X86.391 Y91.769 E0.02552
G1 X85.839 Y91.769 E0.01344
G1 X85.369 Y91.299 E0.01618
G1 X85.089 Y91.571 E0.00950
G1 X85.287 Y91.769 E0.00684
G1 F5760
G1 X85.089 Y91.571 E-0.09730
G1 F5760
G1 X85.369 Y91.299 E-0.13522
G1 F5760
G1 X85.839 Y91.769 E-0.23021
G1 F5760
G1 X86.391 Y91.769 E-0.19121
G1 F5760
G1 X86.175 Y91.553 E-0.10606
G1 E-0.04000 F2100.00000
G1 X88.652 Y146.281 F7200.000
G1 E0.80000 F2100.00000
G1 F720
G1 X88.652 Y149.021 E0.06626
G1 X85.912 Y149.021 E0.06626
G1 X85.912 Y146.281 E0.06626
G1 X88.592 Y146.281 E0.06481
G1 X88.264 Y146.669 F7200.000
G1 F720
G1 X88.264 Y148.633 E0.04750
G1 X86.300 Y148.633 E0.04750
G1 X86.300 Y146.669 E0.04750
G1 X88.204 Y146.669 E0.04605
G1 X88.664 Y146.669 F7200.000
